assets/features/channel/southeast-asia1/RCBC.svg

<svg width="80" height="80" viewBox="0 0 80 80" fill="none" xmlns="http://www.w3.org/2000/svg">
<rect width="80" height="80" rx="8" fill="#0982E0"/>
<path d="M16.0007 30.0416C21.7394 26.6947 27.4786 23.349 33.2161 20C38.9509 23.468 44.6983 26.9154 50.4325 30.3838C50.4266 32.6688 50.4309 34.9543 50.4304 37.2392C49.9277 37.2408 49.4256 37.2414 48.9228 37.2397C48.9261 35.2884 48.9207 33.3376 48.9261 31.3863C43.6923 28.2006 38.4498 25.0294 33.2172 21.8427C27.9785 24.857 22.7372 27.8665 17.5012 30.885C17.512 36.9661 17.4958 43.0472 17.5093 49.1278C22.7502 52.1853 27.9796 55.2618 33.2172 58.3248C38.4494 55.2516 43.6885 52.1902 48.9223 49.1196C48.9256 48.7849 48.9228 48.4508 48.924 48.1161C49.4256 48.1156 49.9277 48.1156 50.4299 48.1161C50.432 48.7271 50.426 49.3381 50.4325 49.949C44.6987 53.3645 38.9509 56.7552 33.2156 60.1674C27.478 56.7638 21.741 53.3597 16.0013 49.9604C15.9991 43.3208 16.0002 36.6812 16.0007 30.0416Z" fill="white"/>
<path d="M38.5867 37.9988C39.538 37.622 40.5985 37.5825 41.5989 37.7582C42.5848 37.9274 43.487 38.4481 44.1891 39.1516C43.8221 39.5581 43.4708 39.9783 43.1096 40.3897C42.5254 39.8355 41.813 39.3716 41.0038 39.2467C40.1628 39.0964 39.2542 39.2943 38.577 39.8231C37.9737 40.2832 37.5597 40.9677 37.3905 41.7035C37.1835 42.5968 37.2921 43.5711 37.7364 44.3778C38.0872 45.0163 38.6569 45.5424 39.3423 45.8003C40.0315 46.0626 40.8082 46.0572 41.5082 45.8403C42.1503 45.637 42.6929 45.2127 43.1767 44.7563C43.5372 45.1213 43.9069 45.4781 44.2524 45.8577C43.5843 46.5579 42.7627 47.1466 41.8098 47.3753C40.9304 47.5867 39.9931 47.6041 39.1131 47.3829C37.984 47.0991 36.9738 46.3751 36.3408 45.3975C35.2447 43.7376 35.2598 41.4252 36.3711 39.7765C36.9003 38.9726 37.6889 38.3437 38.5867 37.9988Z" fill="white"/>
<path d="M57.7029 38.295C58.4396 37.8759 59.2882 37.6608 60.1352 37.6613C60.8314 37.6483 61.5351 37.744 62.1876 37.9954C62.8426 38.2474 63.4318 38.6561 63.9269 39.1515C63.5659 39.5618 63.2097 39.9765 62.8519 40.3901C62.414 39.9786 61.9157 39.618 61.3497 39.4061C60.5466 39.1093 59.6217 39.1239 58.8466 39.498C58.1872 39.81 57.6607 40.3733 57.3608 41.0351C56.9505 41.9317 56.9213 42.9919 57.2662 43.9148C57.5456 44.6799 58.1137 45.3477 58.8537 45.7001C59.5109 46.0236 60.2806 46.0716 60.9893 45.9116C61.7427 45.7521 62.3675 45.2687 62.9226 44.7599C63.2805 45.1228 63.6388 45.4855 63.9999 45.8456C63.3713 46.5161 62.6 47.0795 61.707 47.333C60.9903 47.5428 60.2314 47.5752 59.4915 47.5039C58.0629 47.3417 56.7278 46.4966 55.9922 45.2569C55.0441 43.6981 55.0295 41.6245 55.9446 40.0473C56.3592 39.3196 56.9737 38.707 57.7029 38.295Z" fill="white"/>
<path d="M28.1051 39.3511C28.1056 40.4189 28.1067 41.4873 28.104 42.5552C28.945 42.5546 29.7861 42.5568 30.6271 42.5541C31.1028 42.5525 31.5952 42.4336 31.9735 42.1346C32.6622 41.6047 32.713 40.4595 32.1076 39.8496C31.7163 39.4755 31.1536 39.3608 30.6287 39.3527C29.7877 39.3495 28.9462 39.3527 28.1051 39.3511ZM26.4301 37.8247C27.8819 37.8269 29.3337 37.8231 30.7855 37.8269C31.7022 37.8296 32.6665 38.0718 33.3561 38.705C33.962 39.2527 34.2491 40.0891 34.2264 40.8947C34.2307 41.6441 33.967 42.4092 33.4276 42.9412C33.0216 43.3446 32.4967 43.6117 31.9482 43.7603C32.8092 44.9618 33.6643 46.1675 34.522 47.3716C33.8875 47.3781 33.2524 47.3732 32.6178 47.3748C32.5432 47.3927 32.5114 47.3127 32.4719 47.2694C31.7173 46.194 30.9601 45.1202 30.2028 44.0469C29.5034 44.0507 28.804 44.0481 28.1046 44.0485C28.1062 45.1575 28.1062 46.267 28.104 47.376C27.5462 47.3737 26.9879 47.3743 26.4295 47.376C26.4289 44.1923 26.4284 41.0083 26.4301 37.8247Z" fill="white"/>
<path d="M47.3385 43.2644C47.3331 44.1392 47.3379 45.0146 47.3358 45.89C48.3055 45.8906 49.2751 45.8916 50.2448 45.8894C50.6994 45.8716 51.1837 45.7867 51.5453 45.4909C52.1139 45.0357 52.0972 44.0176 51.474 43.6158C50.9388 43.2644 50.2686 43.2655 49.6513 43.2644L47.3385 43.2644ZM47.3363 39.3088C47.3347 40.1549 47.3379 41.0016 47.3352 41.8478C48.1082 41.8473 48.8816 41.8478 49.6546 41.8478C49.94 41.851 50.2248 41.8089 50.4988 41.7299C50.8442 41.6218 51.1789 41.4001 51.321 41.0546C51.5031 40.6204 51.4512 40.0544 51.0923 39.724C50.7518 39.4033 50.2631 39.325 49.814 39.3082C48.9881 39.3077 48.1622 39.3066 47.3363 39.3088ZM45.6802 37.8257C47.1655 37.8273 48.6508 37.8224 50.1361 37.8279C50.9723 37.8451 51.8636 38.0674 52.4701 38.6767C52.9009 39.0957 53.1134 39.7056 53.0966 40.3009C53.102 40.8551 52.9155 41.4207 52.5274 41.824C52.3084 42.0684 52.029 42.2441 51.7501 42.4123C52.3053 42.6112 52.8684 42.8892 53.2236 43.3779C53.6268 43.9159 53.6944 44.6339 53.5819 45.279C53.4662 45.9208 53.0523 46.4901 52.4928 46.8194C51.7718 47.2498 50.9145 47.3817 50.0864 47.3747C48.6179 47.3769 47.1498 47.3725 45.6818 47.3774C45.6786 44.1933 45.6823 41.0097 45.6802 37.8257Z" fill="white"/>
</svg>

<svg xmlns="http://www.w3.org/2000/svg" width="80" height="80" fill="none" viewBox="0 0 80 80"><rect width="80" height="80" fill="#0982e0" rx="8"/><path fill="#fff" d="M16 30.042Q24.61 25.022 33.217 20c5.735 3.468 11.482 6.915 17.216 10.384-.005 2.285-.001 4.57-.002 6.855q-.753.003-1.507 0c.003-1.95-.002-3.901.003-5.853-5.234-3.185-10.476-6.357-15.709-9.543-5.238 3.014-10.48 6.023-15.716 9.042.011 6.081-.005 12.162.008 18.243 5.241 3.057 10.47 6.134 15.708 9.197 5.232-3.073 10.471-6.135 15.705-9.205.004-.335 0-.67.002-1.004h1.506c.002.611-.004 1.222.002 1.833-5.733 3.416-11.481 6.806-17.216 10.218Q24.61 55.061 16 49.96q-.002-9.96 0-19.918"/><path fill="#fff" d="M38.587 37.999c.951-.377 2.011-.416 3.012-.24.986.168 1.888.69 2.59 1.393-.367.406-.718.826-1.08 1.238-.584-.554-1.296-1.018-2.105-1.143-.841-.15-1.75.047-2.427.576-.603.46-1.017 1.145-1.186 1.88-.207.894-.099 1.868.345 2.675.351.638.92 1.164 1.606 1.422.69.263 1.466.257 2.166.04.642-.203 1.185-.627 1.669-1.084.36.365.73.722 1.075 1.102-.668.7-1.49 1.289-2.442 1.517a5.7 5.7 0 0 1-2.697.008 4.7 4.7 0 0 1-2.772-1.986c-1.096-1.66-1.081-3.972.03-5.62a4.7 4.7 0 0 1 2.216-1.778m19.116.296a4.93 4.93 0 0 1 2.432-.634c.696-.013 1.4.083 2.053.334a5 5 0 0 1 1.739 1.157q-.54.617-1.075 1.238c-.438-.411-.936-.772-1.502-.984-.803-.297-1.728-.282-2.503.092a3.13 3.13 0 0 0-1.486 1.537 3.8 3.8 0 0 0-.095 2.88c.28.765.848 1.433 1.588 1.785.657.324 1.427.372 2.135.212.754-.16 1.379-.643 1.934-1.152q.536.545 1.077 1.086c-.629.67-1.4 1.234-2.293 1.487-.717.21-1.476.242-2.215.17-1.43-.161-2.764-1.006-3.5-2.246-.948-1.559-.962-3.633-.047-5.21a4.7 4.7 0 0 1 1.758-1.752m-29.598 1.056q.002 1.602-.001 3.204 1.262.002 2.523 0c.476-.002.968-.121 1.347-.42.688-.53.739-1.675.134-2.285-.392-.375-.954-.49-1.48-.497-.84-.004-1.682 0-2.523-.002m-1.675-1.526c1.452.002 2.904-.002 4.355.002.917.003 1.881.245 2.571.878.606.548.893 1.384.87 2.19.005.75-.259 1.514-.798 2.046-.406.404-.931.67-1.48.82.861 1.2 1.716 2.406 2.574 3.61-.634.007-1.27.002-1.904.004-.075.018-.107-.062-.146-.106q-1.133-1.613-2.27-3.222c-.699.004-1.398.001-2.097.002q.002 1.663-.001 3.327-.837-.003-1.674 0-.002-4.776 0-9.551m20.909 5.439c-.006.875-.001 1.75-.003 2.626q1.455.002 2.909 0c.454-.018.939-.103 1.3-.4.569-.454.552-1.472-.071-1.874-.535-.352-1.205-.35-1.823-.352zm-.003-3.955c-.001.846.002 1.693 0 2.539h2.319c.285.003.57-.04.844-.118.345-.108.68-.33.822-.675.182-.435.13-1-.229-1.331-.34-.32-.829-.399-1.278-.416zm-1.656-1.483c1.486.001 2.97-.004 4.456.002.836.017 1.728.24 2.334.849.43.419.643 1.029.627 1.624.005.554-.181 1.12-.57 1.523-.219.244-.498.42-.777.588.555.2 1.118.477 1.474.966.403.538.47 1.256.358 1.901a2.3 2.3 0 0 1-1.09 1.54c-.72.43-1.578.563-2.406.556-1.468.002-2.936-.002-4.404.002-.003-3.184 0-6.367-.002-9.551"/></svg>
